svgs/regular/border-center-v.svg

<svg xmlns="http://www.w3.org/2000/svg" viewBox="0 0 448 512"><!--! Font Awesome Pro 6.0.0-alpha3 by @fontawesome - https://fontawesome.com License - https://fontawesome.com/license (Commercial License) --><path d="M136 424h-16c-8.836 0-16 7.162-16 16v16c0 8.836 7.164 16 16 16h16c8.836 0 16-7.164 16-16v-16C152 431.2 144.8 424 136 424zM136 232h-16c-8.836 0-16 7.162-16 16v16c0 8.836 7.164 16 16 16h16c8.836 0 16-7.164 16-16v-16C152 239.2 144.8 232 136 232zM40 40h-16c-8.836 0-16 7.162-16 16v16c0 8.836 7.164 16 16 16h16c8.836 0 16-7.164 16-16v-16C56 47.16 48.84 40 40 40zM136 40h-16c-8.836 0-16 7.162-16 16v16c0 8.836 7.164 16 16 16h16c8.836 0 16-7.164 16-16v-16C152 47.16 144.8 40 136 40zM40 328h-16c-8.836 0-16 7.162-16 16v16c0 8.836 7.164 16 16 16h16c8.836 0 16-7.164 16-16v-16C56 335.2 48.84 328 40 328zM40 136h-16c-8.836 0-16 7.162-16 16v16c0 8.836 7.164 16 16 16h16c8.836 0 16-7.164 16-16v-16C56 143.2 48.84 136 40 136zM40 232h-16c-8.836 0-16 7.162-16 16v16c0 8.836 7.164 16 16 16h16c8.836 0 16-7.164 16-16v-16C56 239.2 48.84 232 40 232zM40 424h-16c-8.836 0-16 7.162-16 16v16c0 8.836 7.164 16 16 16h16c8.836 0 16-7.164 16-16v-16C56 431.2 48.84 424 40 424zM424 424h-16c-8.836 0-16 7.162-16 16v16c0 8.836 7.164 16 16 16h16c8.836 0 16-7.164 16-16v-16C440 431.2 432.8 424 424 424zM424 328h-16c-8.836 0-16 7.162-16 16v16c0 8.836 7.164 16 16 16h16c8.836 0 16-7.164 16-16v-16C440 335.2 432.8 328 424 328zM424 232h-16c-8.836 0-16 7.162-16 16v16c0 8.836 7.164 16 16 16h16c8.836 0 16-7.164 16-16v-16C440 239.2 432.8 232 424 232zM424 136h-16c-8.836 0-16 7.162-16 16v16c0 8.836 7.164 16 16 16h16c8.836 0 16-7.164 16-16v-16C440 143.2 432.8 136 424 136zM424 40h-16c-8.836 0-16 7.162-16 16v16c0 8.836 7.164 16 16 16h16c8.836 0 16-7.164 16-16v-16C440 47.16 432.8 40 424 40zM328 40h-16c-8.836 0-16 7.162-16 16v16c0 8.836 7.164 16 16 16h16c8.836 0 16-7.164 16-16v-16C344 47.16 336.8 40 328 40zM328 424h-16c-8.836 0-16 7.162-16 16v16c0 8.836 7.164 16 16 16h16c8.836 0 16-7.164 16-16v-16C344 431.2 336.8 424 328 424zM328 232h-16c-8.836 0-16 7.162-16 16v16c0 8.836 7.164 16 16 16h16c8.836 0 16-7.164 16-16v-16C344 239.2 336.8 232 328 232zM232 32h-16c-8.875 0-16 7.125-16 16v416c0 8.875 7.125 16 16 16h16c8.875 0 16-7.125 16-16v-416C248 39.13 240.9 32 232 32z"/></svg>

<svg xmlns="http://www.w3.org/2000/svg" viewBox="0 0 448 512"><!-- Font Awesome Pro 6.0.0-alpha2 by @fontawesome - https://fontawesome.com License - https://fontawesome.com/license (Commercial License) --><path d="M136 424H120C111.164 424 104 431.162 104 440V456C104 464.836 111.164 472 120 472H136C144.836 472 152 464.836 152 456V440C152 431.162 144.836 424 136 424ZM136 232H120C111.164 232 104 239.162 104 248V264C104 272.836 111.164 280 120 280H136C144.836 280 152 272.836 152 264V248C152 239.162 144.836 232 136 232ZM40 40H24C15.164 40 8 47.162 8 56V72C8 80.836 15.164 88 24 88H40C48.836 88 56 80.836 56 72V56C56 47.162 48.836 40 40 40ZM136 40H120C111.164 40 104 47.162 104 56V72C104 80.836 111.164 88 120 88H136C144.836 88 152 80.836 152 72V56C152 47.162 144.836 40 136 40ZM40 328H24C15.164 328 8 335.162 8 344V360C8 368.836 15.164 376 24 376H40C48.836 376 56 368.836 56 360V344C56 335.162 48.836 328 40 328ZM40 136H24C15.164 136 8 143.162 8 152V168C8 176.836 15.164 184 24 184H40C48.836 184 56 176.836 56 168V152C56 143.162 48.836 136 40 136ZM40 232H24C15.164 232 8 239.162 8 248V264C8 272.836 15.164 280 24 280H40C48.836 280 56 272.836 56 264V248C56 239.162 48.836 232 40 232ZM40 424H24C15.164 424 8 431.162 8 440V456C8 464.836 15.164 472 24 472H40C48.836 472 56 464.836 56 456V440C56 431.162 48.836 424 40 424ZM424 424H408C399.164 424 392 431.162 392 440V456C392 464.836 399.164 472 408 472H424C432.836 472 440 464.836 440 456V440C440 431.162 432.836 424 424 424ZM424 328H408C399.164 328 392 335.162 392 344V360C392 368.836 399.164 376 408 376H424C432.836 376 440 368.836 440 360V344C440 335.162 432.836 328 424 328ZM424 232H408C399.164 232 392 239.162 392 248V264C392 272.836 399.164 280 408 280H424C432.836 280 440 272.836 440 264V248C440 239.162 432.836 232 424 232ZM424 136H408C399.164 136 392 143.162 392 152V168C392 176.836 399.164 184 408 184H424C432.836 184 440 176.836 440 168V152C440 143.162 432.836 136 424 136ZM424 40H408C399.164 40 392 47.162 392 56V72C392 80.836 399.164 88 408 88H424C432.836 88 440 80.836 440 72V56C440 47.162 432.836 40 424 40ZM328 40H312C303.164 40 296 47.162 296 56V72C296 80.836 303.164 88 312 88H328C336.836 88 344 80.836 344 72V56C344 47.162 336.836 40 328 40ZM328 424H312C303.164 424 296 431.162 296 440V456C296 464.836 303.164 472 312 472H328C336.836 472 344 464.836 344 456V440C344 431.162 336.836 424 328 424ZM328 232H312C303.164 232 296 239.162 296 248V264C296 272.836 303.164 280 312 280H328C336.836 280 344 272.836 344 264V248C344 239.162 336.836 232 328 232ZM232 32H216C207.125 32 200 39.125 200 48V464C200 472.875 207.125 480 216 480H232C240.875 480 248 472.875 248 464V48C248 39.125 240.875 32 232 32Z"/></svg>
